X:1
T:BWV 244.15
T:BWV 244.15
T:BWV 244.15
T:J. S. Bach
T:CC0 1.0 Universal (Public Domain). Mark Gotham and FourScoreAndMore.org waive all rights to this document.
C:J. S. Bach
Z:CC0 1.0 Universal (Public Domain). Mark Gotham and FourScoreAndMore.org waive all rights to this document.
%%score [ 1 2 3 4 ]
L:1/8
M:4/4
K:E
V:1 treble nm="Soprano" snm="S."
V:2 treble nm="Alto" snm="A."
V:3 treble-8 nm="Tenor" snm="T."
V:4 bass nm="Bass" snm="B."
V:1
 G2 | c2 B2 A2 G2 | F4 !fermata!G2 d2 | e2 e2 dc d2 | !fermata!c6 G2 | c2 B2 A2 G2 | %6
 F4 !fermata!G2 d2 | e2 e2 dc d2 | !fermata!c6 e2 | dc B2 c2 d2 | e4 !fermata!e2 B2 | c2 B2 A2 A2 | %12
 !fermata!G6 e2 | de f2 e2 d2 | c4 !fermata!d2 G2 | A2 G2 F2 B2 | !fermata!G6 x2 |] %17
V:2
 E2 | E2 E2 EF x2 | x6 F2 | EF x6 | x6 E2 | E2 E2 EF x2 | x6 F2 | EF x6 | x6 cB | A2 GF E2 x2 | %10
 x6 G2 | A2 x6 | x6 F2 | F2 F2 G2 x2 | x6 E2 | ED x6 | x8 |] %17
V:3
 B2 | A2 B2 cB x2 | x6 ^B2 | G2 x6 | x6 B2 | A2 B2 cB x2 | x6 ^B2 | G2 x6 | x6 g2 | fe d2 cB x2 | %10
 x6 e2 | e2 x6 | x6 c2 | B2 B^A Bc x2 | x6 B2 | =A2 x6 | x8 |] %17
V:4
 E,2 | A,2 G,2 C,D, x2 | x6 D,2 | C,D, x6 | x6 E,2 | A,2 G,2 C,D, x2 | x6 D,2 | C,D, x6 | x6 C2 | %9
 F,2 G,2 A,G, x2 | x6 E,2 | A,2 x6 | x6 ^A,2 | B,2 D,2 G,^A, x2 | x6 E,D, | C,2 x6 | x8 |] %17

